!!!OTL: Exultet
!!!SMS: V1 9820: Citt&agrave; del Vaticano, Biblioteca Apostolica Vaticana,Vat. lat. 9820, Exultet
**kern	**silbe
*	*LLatin
*staff7	*staff7
!V1 9820	!V1 9820
=1-	=1-
*clefGv2	*
*k[]	*
1r	.
=2-	=2-
1r	.
=3-	=3-
1r	.
=4-	=4-
1r	.
=5-	=5-
1r	.
=6-	=6-
1r	.
=7-	=7-
1r	.
=8-	=8-
1r	.
=9-	=9-
1r	.
=10-	=10-
(8G	(Gau-
8A)	.
4G	-de-
8G	-at
8G	se
8G	tan-
8F	-tis
=11-	=11-
(8F	tel-
8G)	.
8G	-lus
8G	ir-
8G	ra)
8F	-di-
(8G	-a-
8A)	.
=12-	=12-
(8A	-ta
&(8G&))	.
8F	ful-
(8G	-go-
8A)	.
(8G	-ri-
8F)	.
8F	-bus.
=13-	=13-
4F	et
8F	e-
4A	-ter-
8G	-ni
(8F	re-
8G)	.
=14-	=14-
4G	-gis
4G	splen-
(8G	-do-
8A)	.
(8A	-re
8G)	.
=15-	=15-
4F	lu-
(8G	-stra-
8A	.
4G)	.
4F	-ta.
=16-	=16-
8F	to-
8A	-ti-
8G	-us
8G	or-
8G	-bis
8F	se
(8F	sen-
8G)	.
=17-	=17-
8G	-ti-
8G	-at
8G	a-
8F	-mi-
(16G	-sis-
8A	.
16G	.
8A)	.
16G	.
16F	.
=18-	=18-
(16F	-se
16G	.
8A)	.
(16G	ca-
16A	.
8G)	.
8F	-li-
8F	-gi-
4F	-nem.
=19-	=19-
(16F	Le-
16A)	.
8G	-te-
8G	-tur
8G	et
8G	ma-
8G	-ter
8F	ec-
(16F	-cle-
16G)	.
=20-	=20-
8G	-si-
8G	-a.
8G	tan-
8F	-ti
(16F	lu-
16G)	.
8G	-mi-
8G	-nis
8G	ad-
=21-	=21-
8G	or
(16G	-na-
16A)	.
(16A	-ta
8G)	.
8F	ful-
(16G	-go-
8A)	.
(16G	-ri-
16F)	.
8F	-bus.
=22-	=22-
8F	et
8A	mag-
8G	-nis
8G	po-
8G	-pu-
8G	-lo-
8F	-rum
(8F	vo-
=23-	=23-
8G)	.
8G	-ci-
8G	-bus
8F	hec
(8G	au-
8A	.
8G	.
8A)	.
=24-	=24-
8G	.
8F	.
4A	-la
(16G	re-
16A	.
8G)	.
8F	-sul-
8F	-tet.
=25-	=25-
(8G	(Qua-
8A)	.
8G	prop
8G	-ter
8G	a-
8G	-stan-
8G	-ti-
8F	-bus
=26-	=26-
(8F	vo-
8G)	.
4G	-bis
(8G	fra-
8A)	.
(8A	-tres)
8G)	.
=27-	=27-
4F	ka-
(8G	-ris-
4A)	.
(8G	-si-
8F)	.
8F	-mi.
=28-	=28-
4F	ad
8A	tam
8G	mi-
4G	-ram
8G	sanc-
8F	-ti
=29-	=29-
(8F	hu-
8G)	.
8G	-ius
8G	lu-
4G	-mi-
(8G	-nis
8A)	.
=30-	=30-
(8A	cla-
8G)	.
8F	-ri-
(8G	-ta-
8A	.
8G)	.
4F	-tem.
=31-	=31-
8F	u-
8A	-na
8G	me-
8G	-cum
8G	ques-
8G	-so
8G	de-
8G	-i
=32-	=32-
8G	om-
16G	-ni-
16F	-po-
(16F	-ten-
16G)	.
8G	-tis
8G	mi-
8G	-se-
8F	-ri-
16G	-cor-
16F	-di-
=33-	=33-
(16G	-am
16A	.
16G	.
16A)	.
16G	.
8F	.
(16F	in-
16G	.
16A)	.
(16G	-vo-
16A	.
8G)	.
16F	-ca-
16F	-te.
=34-	=34-
(16F	Ut
16A)	.
8G	[q](ui)
8G	me
8G	non
8G	me-
8F	-is
(16F	me-
16G)	.
8G	-ri-
=35-	=35-
16G	-tis
8G	in-
8G	-tra
8G	le-
8G	-vi-
8G	-ta-
8F	-rum
(16F	nu-
16G)	.
16G	-me-
=36-	=36-
16G	-rum
16G	dig-
16G	-na-
16G	-tus
(16G	est
8A)	.
(16A	ag-
16G)	.
8F	-gre-
(16G	-ga-
16A	.
8G)	.
16F	-re
=37-	=37-
4A	lu-
4G	-mi-
4G	-nis
(8F	su-
8G)	.
=38-	=38-
4G	-[i]
4F	gra-
(8G	-ti-
8A)	.
(8A	-am
8G)	.
=39-	=39-
4F	in-
(8G	-fun-
8A	.
4G)	.
4F	-dens.
=40-	=40-
4A	Ce-
4G	-re-
8G	-i
8G	hu-
8F	-[ius
(8F	lau-
=41-	=41-
8G)	.
8G	-dem
8F	im-
(8G	-ple-
8A	.
8G	.
8A)	.
8G	.
=42-	=42-
8F	.
(8F	-re
16G	.
16A)	.
(16G	pre-
16A	.
8G)	.
8F	-ci-
8F	-pi-
8F	-at]
=43-	=43-
(8F	[Per
8A)	.
4G	do-
4G	-mi-
8G	-num]
8G	no-
=44-	=44-
4G	-strum
8G	hie-
8F	-sum
(8F	chri-
8G)	.
8G	-stum
(8G	fi-
=45-	=45-
8A)	.
(8A	-li-
8G)	.
8F	-um
(8G	su-
8A	.
8G)	.
8F	-um.
=46-	=46-
8F	vi-
8A	-ven-
8G	-tem
(16F	se-
16G)	.
8G	-cum
8G	at-
8G	-que
8F	reg-
=47-	=47-
(16F	-nan-
16G)	.
8G	-tem
8G	in
8G	u-
8F	-ni-
(16F	-ta-
16G)	.
8G	-te
8G	spi-
=48-	=48-
8G	-ri-
(16G	-tus
8A)	.
(16A	sanc-
8G)	.
8F	-ti
(16G	de-
16A	.
8G)	.
8F	-us.
=49-	=49-
4F	Per
8G	om-
8G	-ni-
4F	-a
8G	se-
8F	-cu-
=50-	=50-
(16G	-la
16A	.
16G	.
8A)	.
16G	.
8F	.
(16F	se-
16G	.
8A)	.
(16G	-cu-
16A	.
8G)	.
=51-	=51-
4F	-lo-
4F	-rum.
4E	A-
4F	-MEN.
=52-	=52-
8F	Do-
(8G	-mi-
8A)	.
(8B	-nus
8A)	.
(16G	vo-
16A)	.
8G	.
8F	.
=53-	=53-
(8G	-bi-
8A)	.
(8G	-scum.
8F)	.
8F	et
8G	cum
(8A	Spi-
8B)	.
=54-	=54-
4A	-ri-
4A	-tu
(8G	tu-
8A)	.
(8G	-o.
8F)	.
=55-	=55-
16F	Sur-
(16G	.
16A)	.
8B	.
16B	-sum
16A	.
(16G	.
16A)	.
16G	.
8F	.
(8G	cor-
8A)	.
=56-	=56-
(8G	-da.
8F)	.
4F	A-
(8G	-be-
8A)	.
4A	-mus
=57-	=57-
8A	ad
(8B	do-
8A)	.
(8G	-mi-
8A)	.
(8A	-num.
8G	.
8F)	.
=58-	=58-
(16F	Gra-
16G	.
16A)	.
(16G	-ti-
16F)	.
(16F	-as
16G)	.
8A	a-
(16B	-ga-
16A)	.
(16G	-mus
16A)	.
(16G	do-
16A	.
16B)	.
=59-	=59-
8A	-mi-
(16G	-no
16A)	.
(16G	.
16F)	.
16F	de-
16G	.
16A	-o
(16G	no-
16A)	.
8G	-stro.
(16F	Dig-
16G	.
16A)	.
=60-	=60-
8B	.
8A	-num
8A	et
(16B	iu-
8A)	.
(8G	-stum
8A)	.
16A	est.
16G	.
16F	.
=61-	=61-
(16F	VE-
16G	.
8A)	.
(16G	-RE
16F)	.
8G	QUI-
8A	-A
8B	DIG-
4A	-NUM
=62-	=62-
8A	ET
(16G	IU-
16A	.
8B)	.
(8A	-STUM
8G)	.
8F	EST.
4r	.
=63-	=63-
1r	.
=64-	=64-
4F	IN-
4F	VI
4A	SI
8G	BI
8G	-LE
=65-	=65-
8G	DE-
8F	-UM
(8F	PA-
8G)	.
4G	-TREM
(8G	OM-
8A)	.
=66-	=66-
(8A	NI
8G)	.
8F	PO
(8G	TEN
8A	.
8G)	.
4F	-TEM
=67-	=67-
8F	FI-
8F	LI
8A	UM
8G	-QUE
(16F	E-
16G)	.
8G	-IUS
8G	U-
8F	NI
=68-	=68-
(16F	GE
16G)	.
8G	NI
8G	-TUM.
8G	Do-
8G	-mi-
8G	-num
4G	no-
=69-	=69-
(16G	-strum
16A)	.
(8A	hie-
8G)	.
8F	-sum
(8G	chri-
8A	.
8G)	.
8F	-stum.
=70-	=70-
32A	Sanc-
32G	-tum
16G	quo-
32F	-que
(32G	spi-
16A)	.
(32G	-ri-
16F)	.
16F	-tum.
16F	To-
16F	-to
16A	cor-
16G	-dis
16G	ac
32G	men-
32G	-tis
16F	af-
(32F	-fec-
16G)	.
16G	-tu.
=71-	=71-
4G	et
8G	vo-
8G	-cis
8G	mi-
8F	-ni-
8G	-ste-
8F	-ri-
=72-	=72-
(16G	-o
16A	.
16G	.
16A)	.
16G	.
8F	.
(16F	per-
16G	.
8A)	.
(16G	-so-
16A	.
16G)	.
16F	-na-
16F	-re.
=73-	=73-
4F	Qui
4F	pro
4A	no-
8G	-bis
8G	e-
=74-	=74-
8G	-ter-
8F	-no
(16F	pa-
16G)	.
8G	-tri
8G	a-
8G	-de
(8G	de-
8A)	.
=75-	=75-
(8A	-bi-
8G)	.
8F	-tum
(8G	sol-
8A	.
8G)	.
4F	-vit.
=76-	=76-
8F	Et
8A	ve-
8G	-te-
8G	-ris
8G	pi-
8G	-a-
8G	-cu-
8G	-li
=77-	=77-
8G	cau-
8F	-ti-
(16F	-o-
16G)	.
8G	-nem
8G	pi-
8G	-o
8F	cru-
(16G	-o-
16A	.
=78-	=78-
16G	.
16A)	.
16G	.
8F	.
(16F	-re
16G	.
8A)	.
(16G	de-
16A	.
8G)	.
16F	-ter-
8F	-sit.
=79-	=79-
(8F	H(ec)
8A)	.
4G	sunt
4G	e-
4G	-nim
=80-	=80-
4G	fe-
4G	-sta
4F	pa-
4r	.
=81-	=81-
(4F	-scha-
4G)	.
4G	-li-
4G	-a.
=82-	=82-
4G	in
4G	qui-
4G	-bus
4G	ve-
=83-	=83-
4G	-rus
4G	il-
4G	-le
(8G	ag-
8A)	.
=84-	=84-
(8A	-nus
8G)	.
8F	oc-
(8G	-ci-
8A)	.
(8G	-di-
8F)	.
8F	-tur.
=85-	=85-
4F	e-
4A	-ius-
4G	-que
(8F	san-
8G)	.
=86-	=86-
4G	gui
4G	-ne
4F	po-
(16G	-stes
16A	.
16G	.
16A)	.
=87-	=87-
16G	.
8F	.
(16F	con-
16G	.
8A)	.
(8G	-se-
16A	.
8G)	.
8F	-cran-
8F	-tur.
=88-	=88-
16A	Hec
(16G	nos
16F)	.
16G	est.
8G	in
8G	qua
8G	pri-
8G	-mum
16G	pa-
16F	-tres
(16F	no-
16G)	.
=89-	=89-
16G	-stros
8G	fi-
8G	-li-
8G	-os
8G	is-
8F	-ra-
8G	-h(el
8G	e-
=90-	=90-
16G	-du-
8G	-cen)s
8G	do-
8G	-mi-
(16G	-ne
16A)	.
(16A	de
16G)	.
16F	e-
(16G	-gyp-
16A	.
16G)	.
16F	-to.
=91-	=91-
4A	ru-
8G	-brum
(8F	ma-
8G)	.
8G	-re
8G	sic-
8G	-co
=92-	=92-
8F	ve-
(8F	-sti-
8G)	.
8G	-gi-
8G	-o
8F	tran-
(16G	-si-
16A	.
16G	.
16A)	.
=93-	=93-
16G	.
8F	.
(16F	-re
16G	.
8A)	.
(16G	fe-
16A	.
8G)	.
8F	-ci-
8F	-sti.
=94-	=94-
8B	Hec
8A	.
16G	.
16A	.
8G	i-
8G	-gi-
8F	-tur
4G	nox
=95-	=95-
4G	est
4G	que
4G	pec-
8G	-ca-
=96-	=96-
8G	-to-
8F	-rum
(8F	te-
4G)	.
8G	-ne-
4G	-bras.
=97-	=97-
4G	co-
4A	-lum-
4G	-ne
8G	il-
8G	-lu-
=98-	=98-
8F	-mi-
8G	-na-
8F	-ti-
(8G	-o-
8A	.
8G	.
8A)	.
8G	.
=99-	=99-
8F	.
(8F	-ne
16G	.
8A)	.
(8G	pur-
16A	.
8G)	.
8F	-ga-
8F	-vit.
=100-	=100-
(8F	Hec
8A)	.
(8G	nox
8F)	.
8G	est
8G	que
8G	ho-
8G	-di-
=101-	=101-
8G	-e
8G	per
8G	u-
8G	-ni-
8G	-ver-
8F	-sum
(8F	mun-
8G)	.
=102-	=102-
8G	-dum
8G	in
(16G	chri-
16A)	.
(16A	-sto
16G)	.
8F	cre-
(16G	-den-
16A	.
8G)	.
8F	-tes.
=103-	=103-
8F	A
8A	vi-
8G	-ti-
8G	-us
8G	se-
8G	-cu-
8G	-li
8G	se-
=104-	=104-
8F	-gre-
(8F	-ga-
8G)	.
8G	-tos
8G	et
8G	ca-
8G	-li-
8G	-gi-
=105-	=105-
4G	-ne
8G	pec-
8G	-ca-
4G	-to-
(8G	-rum.
8A)	.
=106-	=106-
(8A	red-
8G)	.
4F	-dit
(8G	gra-
8A)	.
(8G	-ti-
8F)	.
=107-	=107-
8F	-e
8G	so-
8G	-ci-
8F	at
(8G	-que
8A	.
8G	.
8A)	.
=108-	=108-
16G	.
8F	.
(16F	sanc-
16G	.
8A)	.
(16G	-ti-
8A	.
8G)	.
8F	-ta-
8F	-te.
=109-	=109-
16B	Hec
16A	.
(16G	.
8A)	.
(16G	nox
16A)	.
16G	.
8F	.
8G	est
8G	in
8G	qua
=110-	=110-
4F	de-
(8F	-struc-
8G)	.
4G	-tis
(8G	vin-
8A)	.
=111-	=111-
(8A	-cu-
8G)	.
8F	-lis
(8G	mor-
8A	.
8G)	.
4F	-tis.
=112-	=112-
4A	chri-
4G	-stus
4F	ab
8G	in-
8G	-fe-
=113-	=113-
8F	-ris
(8G	vic-
8A	.
8G	.
8A)	.
8G	.
8F	.
(8F	-tor
=114-	=114-
8G	.
8A)	.
(8G	a-
8A	.
8G)	.
8F	-scen-
4F	-dit.
=115-	=115-
(4F	Ni-
4A)	.
4G	-chil
4G	e-
=116-	=116-
4G	-nim
4G	no-
4G	-bis
4G	na-
=117-	=117-
4F	-sci
(8F	pro-
8G)	.
4G	-fu-
4G	-it.
=118-	=118-
4G	ni-
4F	-si
4G	re-
4F	-di-
=119-	=119-
(8G	-mi
8A	.
8G	.
8A)	.
8G	.
4F	.
(8F	pro-
=120-	=120-
8G	.
4A)	.
(8G	-fu-
8A	.
8G)	.
8F	-is-
8F	-set.
=121-	=121-
8F	O
16G	mi-
8A	.
(16A	-ra
16B)	.
16A	.
(16G	cir-
&(16A&))	.
(16G	.
16F)	.
8F	-ca
8G	nos
=122-	=122-
4F	[t]u-
8F	-e
8G	pi-
8F	-e-
(16G	-ta-
16A	.
16G	.
16A)	.
16G	.
16F	.
=123-	=123-
(8F	-tis
8G	.
8A)	.
(16G	di-
16A	.
8G)	.
8F	-gna-
8F	-ti-
8F	-o.
=124-	=124-
(8A	O
8G	.
8A)	.
8G	i-
8G	-ne-
8F	-sti-
(8F	-ma-
8G)	.
=125-	=125-
4G	-bi-
8G	-lis
8G	di-
8G	-lec-
8G	-ti-
(8G	-o
8A)	.
=126-	=126-
(8A	ca-
8G)	.
4F	-ri-
(8G	-ta-
8A	.
8G)	.
8F	-tis.
=127-	=127-
4F	ut
8A	ser-
8G	-vum
8F	re-
(8F	-di-
8G)	.
8G	-me-
=128-	=128-
8G	-res
8G	[fi]-
8F	-li-
(8G	-um
16A	.
8G	.
8A)	.
8G	.
16F	.
=129-	=129-
(8F	tra-
8G	.
8A)	.
(8G	-di-
8A	.
8G)	.
8F	(di
8F	-sti.)
=130-	=130-
(8F	O
8A)	.
4G	cer-
8G	-te
4G	ne-
8F	-ces-
=131-	=131-
(4F	-sa-
4G)	.
4G	-ri-
4G	-um
=132-	=132-
(16G	a-
8A)	.
(16A	-de
8G)	.
8F	pec-
(16G	-ca-
16A	.
8G)	.
4F	-tum.
=133-	=133-
8F	quod
8G	chri-
8F	-sti
(8G	mor-
16A	.
8G	.
8A)	.
8G	.
16F	.
=134-	=134-
(16F	-te
16G	.
8A)	.
(8G	[de-
8A	.
8G)	.
8F	-le-
8F	-tum
8F	est.]
=135-	=135-
1r	.
=136-	=136-
1r	.
=137-	=137-
1r	.
=138-	=138-
1r	.
=139-	=139-
1r	.
=140-	=140-
1r	.
=141-	=141-
1r	.
=142-	=142-
1r	.
=143-	=143-
1r	.
=144-	=144-
1r	.
=145-	=145-
1r	.
=146-	=146-
1r	.
=147-	=147-
(16G	il-
8A)	.
(16A	-lu-
8G)	.
8F	-mi-
(16G	-na-
8A)	.
(16G	-bi-
8F)	.
8F	-tur.
=148-	=148-
8F	Et
8A	nox
8G	il-
8G	-lu-
8G	-mi-
8G	-na-
8G	-ti-
8F	-o
=149-	=149-
(8F	me-
8G)	.
8G	-a
8G	in
8F	de-
(8G	-li-
16A	.
8G	.
16A)	.
=150-	=150-
16G	.
8F	.
(16F	-ci-
16G	.
8A)	.
(16G	-is
8A	.
8G)	.
8F	me-
8F	-is.
=151-	=151-
(8F	Hu-
&(8A&))	.
4G	-ius
8G	i-
4G	-gi-
8G	-tur
=152-	=152-
4G	sanc-
8G	-ti-
8G	-fi-
(8G	-ca-
8A)	.
(8A	-ti-
8G)	.
=153-	=153-
4F	-o
(8G	noc-
8A	.
4G)	.
4F	-tis.
=154-	=154-
8B	Fu-
(8B	.
8A)	.
(8G	-gat
8F)	.
(8G	sce-
8A)	.
8A	-le-
=155-	=155-
4r	.
4A	-ra.
(4B	Cul-
4A)	.
=156-	=156-
(8G	-pas
4F)	.
(8G	la-
8A	.
8G)	.
4A	-vat.
=157-	=157-
8F	et
8A	red-
4G	-dit
8G	in-
8G	-no-
4G	-cen-
=158-	=158-
4G	-ti-
4F	-am
4G	lap-
8F	-sis.
(16G	Mes-
16A	.
=159-	=159-
16G	.
16A)	.
16G	.
8F	.
(16F	-tis
16G	.
8A)	.
(16G	le-
16A	.
8G)	.
16F	-ti-
16F	-ti-
16F	-am.
=160-	=160-
(8B	Fu-
8G)	.
(8G	-gat
4F)	.
(8G	o-
4A)	.
=161-	=161-
4A	-di-
4A	-a.
4B	con-
4B	-cor-
=162-	=162-
(8B	-di-
8A)	.
(8G	-am
8F)	.
(8G	pa-
8A	.
8G)	.
8A	-rat
=163-	=163-
4F	et
(8G	cur-
8A	.
8G	.
4A)	.
8G	.
=164-	=164-
4F	.
(4F	-vat
8G	.
4A)	.
(8G	im-
=165-	=165-
8A	.
4G)	.
4F	-pe-
4F	-ri-
8F	-a.
=166-	=166-
(8F	In
8A)	.
4G	hu-
4G	-ius
4G	i-
=167-	=167-
4G	-gi-
(8G	-tur
8A)	.
(8A	noc-
8G)	.
4F	-tis
=168-	=168-
(8G	gra-
4A)	.
(8G	-ti-
4F)	.
4F	-a.
=169-	=169-
8A	su-
8G	-sci-
8G	-pe
8G	sanc-
8F	-te
(16F	pa-
16G)	.
8G	-ter
8G	in-
=170-	=170-
8G	-cen-
8F	-si
(16F	hu-
16G)	.
8G	-ius
8G	sa-
8G	c(ri)
8G	-fi-
8G	-ci-
=171-	=171-
(8G	-um
8A)	.
(8A	ves-
8G)	.
8F	-per-
(16G	-ti-
16A	.
8G)	.
8F	-num.
=172-	=172-
8F	quod
8A	ti-
8G	-bi
8G	in
8F	hac
(16F	ce-
16G)	.
8G	-re-
16G	-i
16G	o-
=173-	=173-
16G	-bla-
16G	-ti-
(16G	-o-
16A)	.
(16A	-ne
16G)	.
8F	sol-
(16G	-lem-
16A	.
16G)	.
16F	-ni.
(16F	p(er)
16G)	.
8G	mi-
=174-	=174-
8G	-ni-
8G	-stro-
8G	-rum
8G	tu-
8G	-o-
8F	-rum
(16F	ma-
16G)	.
8G	-nus.
=175-	=175-
8G	de
8G	o-
(16G	-pe-
8A)	.
(16A	-ri-
8G)	.
8F	-bus
(16G	a-
16A	.
16G)	.
16F	-pum
=176-	=176-
8F	sa-
8F	-cro-
8G	-sanc-
8F	-ta
(8G	red-
8A	.
8G	.
8A)	.
=177-	=177-
16G	.
8F	.
(16F	-dit
16G	.
8A)	.
(16G	[ec-
16A	.
8G)	.
8F	-cle-
8F	-si-
16F	-a]
=178-	=178-
1r	.
=179-	=179-
1r	.
=180-	=180-
1r	.
=181-	=181-
1r	.
=182-	=182-
1r	.
=183-	=183-
1r	.
=184-	=184-
1r	.
=185-	=185-
1r	.
=186-	=186-
1r	.
=187-	=187-
1r	.
=188-	=188-
1r	.
=189-	=189-
1r	.
=190-	=190-
1r	.
=191-	=191-
1r	.
=192-	=192-
1r	.
=193-	=193-
1r	.
=194-	=194-
1r	.
=195-	=195-
1r	.
=196-	=196-
1r	.
=197-	=197-
1r	.
=198-	=198-
1r	.
=199-	=199-
1r	.
=200-	=200-
1r	.
=201-	=201-
1r	.
=202-	=202-
1r	.
=203-	=203-
1r	.
=204-	=204-
1r	.
=205-	=205-
1r	.
=206-	=206-
1r	.
=207-	=207-
1r	.
=208-	=208-
1r	.
=209-	=209-
1r	.
=210-	=210-
1r	.
=211-	=211-
1r	.
=212-	=212-
1r	.
=213-	=213-
1r	.
=214-	=214-
1r	.
=215-	=215-
1r	.
=216-	=216-
1r	.
=217-	=217-
1r	.
=218-	=218-
1r	.
=219-	=219-
1r	.
=220-	=220-
1r	.
=221-	=221-
1r	.
=222-	=222-
1r	.
=223-	=223-
1r	.
=224-	=224-
1r	.
=225-	=225-
1r	.
=226-	=226-
1r	.
=227-	=227-
1r	.
=228-	=228-
1r	.
=229-	=229-
1r	.
=230-	=230-
1r	.
=231-	=231-
1r	.
=232-	=232-
1r	.
=233-	=233-
1r	.
=234-	=234-
1r	.
=235-	=235-
1r	.
=236-	=236-
1r	.
=237-	=237-
1r	.
=238-	=238-
1r	.
=239-	=239-
1r	.
=240-	=240-
1r	.
=241-	=241-
1r	.
=242-	=242-
1r	.
=243-	=243-
1r	.
=244-	=244-
1r	.
=245-	=245-
1r	.
=246-	=246-
1r	.
=247-	=247-
1r	.
=248-	=248-
1r	.
=249-	=249-
1r	.
=250-	=250-
1r	.
=251-	=251-
1r	.
=252-	=252-
1r	.
=253-	=253-
1r	.
=254-	=254-
1r	.
=255-	=255-
1r	.
=256-	=256-
1r	.
=257-	=257-
1r	.
=258-	=258-
1r	.
=259-	=259-
1r	.
=260-	=260-
1r	.
=261-	=261-
1r	.
=262-	=262-
1r	.
=263-	=263-
1r	.
=264-	=264-
1r	.
=265-	=265-
1r	.
=266-	=266-
1r	.
=267-	=267-
1r	.
=268-	=268-
1r	.
=269-	=269-
1r	.
=270-	=270-
1r	.
=271-	=271-
1r	.
=272-	=272-
1r	.
=273-	=273-
1r	.
=274-	=274-
1r	.
=275-	=275-
1r	.
=276-	=276-
1r	.
=277-	=277-
1r	.
=278-	=278-
1r	.
=279-	=279-
1r	.
=280-	=280-
1r	.
=281-	=281-
1r	.
=282-	=282-
1r	.
=283-	=283-
1r	.
=284-	=284-
1r	.
=285-	=285-
1r	.
=286-	=286-
1r	.
=287-	=287-
1r	.
=288-	=288-
1r	.
=289-	=289-
1r	.
=290-	=290-
1r	.
=291-	=291-
1r	.
=292-	=292-
1r	.
=293-	=293-
1r	.
=294-	=294-
1r	.
=295-	=295-
1r	.
=296-	=296-
1r	.
=297-	=297-
1r	.
=298-	=298-
1r	.
=299-	=299-
1r	.
=300-	=300-
1r	.
=301-	=301-
1r	.
=302-	=302-
1r	.
=303-	=303-
1r	.
=304-	=304-
1r	.
=305-	=305-
4G	[et
4G	ab]-
8F	-ba-
4A	-tis-
8G	-sa
=306-	=306-
(16G	no-
8A)	.
(16A	-stra.
8G)	.
8F	il.
(16G	.
16A	.
8G)	.
4F	.
=307-	=307-
8F	cum
8A	om-
8G	-ni
4G	con-
8G	-gre-
8G	-ga-
8F	-ti-
=308-	=308-
(8F	-o-
8G)	.
8G	-ne
8G	sanc-
(8G	-tis-
8A)	.
(8A	-si-
8G)	.
=309-	=309-
4F	-mi
(8G	pe-
8A	.
4G)	.
4F	-tri.
=310-	=310-
4F	pre-
4A	sen
4G	-tis
4G	vi-
=311-	=311-
4G	-te
4G	qui-
4G	-e-
4G	-te
=312-	=312-
4F	con-
(4F	-ces-
4G)	.
4G	-sa.
=313-	=313-
4G	gau-
4G	-di-
8F	-is
8G	fa-
8G	-ci-
8F	-as
=314-	=314-
8G	per-
8F	-fru-
(8G	-i
8A	.
8G	.
8A)	.
8G	.
8F	.
=315-	=315-
(8F	sem-
8G	.
8A)	.
(8G	-pi-
8A	.
8G)	.
8F	-ter-
8F	-nis.
=316-	=316-
1r	.
=317-	=317-
1r	.
=318-	=318-
1r	.
=319-	=319-
1r	.
=320-	=320-
1r	.
=321-	=321-
1r	.
=322-	=322-
1r	.
=323-	=323-
1r	.
=324-	=324-
1r	.
=325-	=325-
1r	.
=326-	=326-
1r	.
=327-	=327-
1r	.
=328-	=328-
1r	.
=329-	=329-
1r	.
=330-	=330-
1r	.
=331-	=331-
1r	.
=332-	=332-
1r	.
=333-	=333-
1r	.
=334-	=334-
1r	.
=335-	=335-
1r	.
=336-	=336-
1r	.
=337-	=337-
1r	.
=338-	=338-
1r	.
=339-	=339-
1r	.
=340-	=340-
1r	.
=341-	=341-
1r	.
=342-	=342-
1r	.
=343-	=343-
1r	.
=344-	=344-
1r	.
=345-	=345-
1r	.
=346-	=346-
1r	.
=347-	=347-
1r	.
=348-	=348-
1r	.
=349-	=349-
1r	.
=350-	=350-
1r	.
=351-	=351-
1r	.
=352-	=352-
1r	.
=353-	=353-
1r	.
=354-	=354-
1r	.
=355-	=355-
1r	.
=356-	=356-
1r	.
=357-	=357-
1r	.
=358-	=358-
1r	.
=359-	=359-
1r	.
=360-	=360-
1r	.
=361-	=361-
1r	.
=362-	=362-
1r	.
=363-	=363-
1r	.
=364-	=364-
1r	.
=365-	=365-
1r	.
=366-	=366-
1r	.
=367-	=367-
1r	.
=368-	=368-
1r	.
=369-	=369-
1r	.
=370-	=370-
1r	.
=371-	=371-
1r	.
=372-	=372-
1r	.
=373-	=373-
1r	.
=374-	=374-
1r	.
=375-	=375-
1r	.
=376-	=376-
1r	.
==	==
*-	*-
!!!hum2abc: -p "%%nostems" -M none
!!!ENC: Elsa De Luca
!!!RWG: Rhythms and barlines are for alignment only, not found in source.
!!!YEC: Copyright 2009, Elsa De Luca
!!!title: @{OTL}, @{SMS}
